(.../pcb-gcode-3.6.0.4/pcb-gcode.ulp)
(Copyright 2005 - 2012 by John Johnson)
(See readme.txt for licensing terms.)
(This file generated from the board:)
(.../Documents/eagle/Globe V2/Globe V2.brd)
(Current profile is .../pcb-gcode-3.6.0.4/profiles/generic.pp  )
(This file generated 27.01.2018 15:33)
(Settings from pcb-machine.h)
(  Tool Size)
(0.9000 )
(Z Axis Settings)
(  High     Up        Down     Drill)
(22.0000 	22.0000 	-0.1000 	-1.4000 )
(spindle on time = 3.0000)
(milling depth = -0.2000)
(text depth = -0.1000)
(tool change at 20.0000 -15.0000 40.0000 )
(feed rate xy = F50.00 )
(feed rate z  = F30.00 )
(Settings from pcb-defaults.h)
(isolate min = 0.0200)
(isolate max = 1.0000)
(isolate step = 0.1000)
(Generated top outlines, top drill, )
(Unit of measure: mm)
( Tool|       Size       |  Min Sub |  Max Sub |   Count )
( T01  3.302mm 0.1300in 0.0000in 0.0000in )
( T02  0.813mm 0.0320in 0.0000in 0.0000in )
( T03  1.016mm 0.0400in 0.0000in 0.0000in )
(Metric Mode)
G21
(Absolute Coordinates)
G90
M05
G00 Z40.0000 
G00 X20.0000 Y-15.0000 
M06 T01  ; 3.3020 
G01 Z0.0000 F30.00 
M06 T01  ; 3.3020 
G00 Z22.0000 
M03
G04 P3.000000
G00 Z22.000000
G00 X12.9940 Y41.1400 
G01 Z-1.4000 F30.00 
G01 Z22.000000
(R22.0000  P1.000000)
(G00 Z22.000000)
G00 X12.9940 Y22.4400 
G01 Z-1.400000
G01 Z22.000000
M05
G00 Z40.0000 
M06 T02  ; 0.8128 
G01 Z0.0000 F30.00 
M06 T02  ; 0.8128 
G00 Z22.0000 
M03
G04 P3.000000
G00 Z22.000000
G00 X36.8800 Y62.7500 
G01 Z-1.4000 F30.00 
G01 Z22.000000
(R22.0000  P1.000000)
(G00 Z22.000000)
G00 X36.8800 Y65.2900 
G01 Z-1.400000
G01 Z22.000000
(G00 Z22.000000)
G00 X37.0400 Y11.9700 
G01 Z-1.400000
G01 Z22.000000
(G00 Z22.000000)
G00 X37.0400 Y22.1300 
G01 Z-1.400000
G01 Z22.000000
(G00 Z22.000000)
G00 X44.1800 Y58.3900 
G01 Z-1.400000
G01 Z22.000000
(G00 Z22.000000)
G00 X45.4500 Y56.4850 
G01 Z-1.400000
G01 Z22.000000
(G00 Z22.000000)
G00 X45.9600 Y39.3700 
G01 Z-1.400000
G01 Z22.000000
(G00 Z22.000000)
G00 X45.9600 Y49.5300 
G01 Z-1.400000
G01 Z22.000000
(G00 Z22.000000)
G00 X46.7200 Y58.3900 
G01 Z-1.400000
G01 Z22.000000
(G00 Z22.000000)
G00 X5.1200 Y51.8700 
G01 Z-1.400000
G01 Z22.000000
(G00 Z22.000000)
G00 X5.1200 Y54.4100 
G01 Z-1.400000
G01 Z22.000000
(G00 Z22.000000)
G00 X57.0400 Y55.1700 
G01 Z-1.400000
G01 Z22.000000
(G00 Z22.000000)
G00 X57.0400 Y65.3300 
G01 Z-1.400000
G01 Z22.000000
(G00 Z22.000000)
G00 X67.9700 Y61.0400 
G01 Z-1.400000
G01 Z22.000000
(G00 Z22.000000)
G00 X69.8800 Y52.3900 
G01 Z-1.400000
G01 Z22.000000
(G00 Z22.000000)
G00 X70.9600 Y36.0700 
G01 Z-1.400000
G01 Z22.000000
(G00 Z22.000000)
G00 X70.9600 Y46.2300 
G01 Z-1.400000
G01 Z22.000000
(G00 Z22.000000)
G00 X71.1500 Y50.4850 
G01 Z-1.400000
G01 Z22.000000
(G00 Z22.000000)
G00 X72.4200 Y52.3900 
G01 Z-1.400000
G01 Z22.000000
(G00 Z22.000000)
G00 X78.1300 Y61.0400 
G01 Z-1.400000
G01 Z22.000000
(G00 Z22.000000)
G00 X18.8800 Y52.9700 
G01 Z-1.400000
G01 Z22.000000
(G00 Z22.000000)
G00 X18.8800 Y58.0500 
G01 Z-1.400000
G01 Z22.000000
(G00 Z22.000000)
G00 X27.7900 Y48.8800 
G01 Z-1.400000
G01 Z22.000000
(G00 Z22.000000)
G00 X30.3300 Y48.8800 
G01 Z-1.400000
G01 Z22.000000
M05
G00 Z40.0000 
M06 T03  ; 1.0160 
G01 Z0.0000 F30.00 
M06 T03  ; 1.0160 
G00 Z22.0000 
M03
G04 P3.000000
G00 Z22.000000
G00 X33.7100 Y5.5000 
G01 Z-1.4000 F30.00 
G01 Z22.000000
(R22.0000  P1.000000)
(G00 Z22.000000)
G00 X33.7100 Y8.0400 
G01 Z-1.400000
G01 Z22.000000
(G00 Z22.000000)
G00 X4.2900 Y61.6100 
G01 Z-1.400000
G01 Z22.000000
(G00 Z22.000000)
G00 X4.2900 Y64.1500 
G01 Z-1.400000
G01 Z22.000000
(G00 Z22.000000)
G00 X50.0400 Y4.5300 
G01 Z-1.400000
G01 Z22.000000
(G00 Z22.000000)
G00 X50.0400 Y29.9400 
G01 Z-1.400000
G01 Z22.000000
(G00 Z22.000000)
G00 X52.5800 Y4.5400 
G01 Z-1.400000
G01 Z22.000000
(G00 Z22.000000)
G00 X52.5800 Y29.9400 
G01 Z-1.400000
G01 Z22.000000
(G00 Z22.000000)
G00 X55.1200 Y4.5400 
G01 Z-1.400000
G01 Z22.000000
(G00 Z22.000000)
G00 X55.1200 Y29.9400 
G01 Z-1.400000
G01 Z22.000000
(G00 Z22.000000)
G00 X57.6600 Y4.5400 
G01 Z-1.400000
G01 Z22.000000
(G00 Z22.000000)
G00 X57.6600 Y29.9400 
G01 Z-1.400000
G01 Z22.000000
(G00 Z22.000000)
G00 X60.2000 Y4.5400 
G01 Z-1.400000
G01 Z22.000000
(G00 Z22.000000)
G00 X60.2000 Y29.9400 
G01 Z-1.400000
G01 Z22.000000
(G00 Z22.000000)
G00 X62.7400 Y4.5400 
G01 Z-1.400000
G01 Z22.000000
(G00 Z22.000000)
G00 X62.7400 Y29.9400 
G01 Z-1.400000
G01 Z22.000000
(G00 Z22.000000)
G00 X65.2800 Y4.5400 
G01 Z-1.400000
G01 Z22.000000
(G00 Z22.000000)
G00 X65.2800 Y29.9400 
G01 Z-1.400000
G01 Z22.000000
(G00 Z22.000000)
G00 X67.8200 Y4.5400 
G01 Z-1.400000
G01 Z22.000000
(G00 Z22.000000)
G00 X67.8200 Y29.9400 
G01 Z-1.400000
G01 Z22.000000
(G00 Z22.000000)
G00 X70.3600 Y4.5400 
G01 Z-1.400000
G01 Z22.000000
(G00 Z22.000000)
G00 X70.3600 Y29.9400 
G01 Z-1.400000
G01 Z22.000000
(G00 Z22.000000)
G00 X72.9000 Y4.5400 
G01 Z-1.400000
G01 Z22.000000
(G00 Z22.000000)
G00 X72.9000 Y29.9400 
G01 Z-1.400000
G01 Z22.000000
(G00 Z22.000000)
G00 X75.4400 Y4.5400 
G01 Z-1.400000
G01 Z22.000000
(G00 Z22.000000)
G00 X75.4400 Y29.9400 
G01 Z-1.400000
G01 Z22.000000
(G00 Z22.000000)
G00 X77.9800 Y4.5400 
G01 Z-1.400000
G01 Z22.000000
(G00 Z22.000000)
G00 X77.9800 Y29.9400 
G01 Z-1.400000
G01 Z22.000000
(G00 Z22.000000)
G00 X80.5200 Y4.5400 
G01 Z-1.400000
G01 Z22.000000
(G00 Z22.000000)
G00 X80.5200 Y29.9400 
G01 Z-1.400000
G01 Z22.000000
(G00 Z22.000000)
G00 X83.0600 Y4.5400 
G01 Z-1.400000
G01 Z22.000000
(G00 Z22.000000)
G00 X83.0600 Y29.9400 
G01 Z-1.400000
G01 Z22.000000
(G00 Z22.000000)
G00 X85.6000 Y4.5400 
G01 Z-1.400000
G01 Z22.000000
(G00 Z22.000000)
G00 X85.6000 Y29.9400 
G01 Z-1.400000
G01 Z22.000000
(G00 Z22.000000)
G00 X87.7100 Y46.2000 
G01 Z-1.400000
G01 Z22.000000
(G00 Z22.000000)
G00 X87.7100 Y48.7400 
G01 Z-1.400000
G01 Z22.000000
(G00 Z22.000000)
G00 X87.7100 Y51.2800 
G01 Z-1.400000
G01 Z22.000000
(G00 Z22.000000)
G00 X87.7100 Y53.8200 
G01 Z-1.400000
G01 Z22.000000
(G00 Z22.000000)
G00 X88.1400 Y4.5400 
G01 Z-1.400000
G01 Z22.000000
(G00 Z22.000000)
G00 X88.1400 Y29.9400 
G01 Z-1.400000
G01 Z22.000000
(G00 Z22.000000)
G00 X90.6800 Y4.5400 
G01 Z-1.400000
G01 Z22.000000
(G00 Z22.000000)
G00 X90.6800 Y29.9400 
G01 Z-1.400000
G01 Z22.000000
(G00 Z22.000000)
G00 X93.2200 Y4.5400 
G01 Z-1.400000
G01 Z22.000000
(G00 Z22.000000)
G00 X93.2200 Y29.9400 
G01 Z-1.400000
G01 Z22.000000
(G00 Z22.000000)
G00 X95.7600 Y4.5400 
G01 Z-1.400000
G01 Z22.000000
(G00 Z22.000000)
G00 X95.7600 Y29.9400 
G01 Z-1.400000
G01 Z22.000000
(G00 Z22.000000)
G00 X27.9800 Y38.6000 
G01 Z-1.400000
G01 Z22.000000
(G00 Z22.000000)
G00 X27.9800 Y41.1400 
G01 Z-1.400000
G01 Z22.000000
(G00 Z22.000000)
G00 X27.9800 Y43.6800 
G01 Z-1.400000
G01 Z22.000000
(G00 Z22.000000)
G00 X27.9800 Y19.9000 
G01 Z-1.400000
G01 Z22.000000
(G00 Z22.000000)
G00 X27.9800 Y22.4400 
G01 Z-1.400000
G01 Z22.000000
(G00 Z22.000000)
G00 X27.9800 Y24.9800 
G01 Z-1.400000
G01 Z22.000000
T01 
M05
M02
